packages/bezier-icons/icons/error-triangle.svg

<svg width="24" height="24" viewBox="0 0 24 24" fill="none" xmlns="http://www.w3.org/2000/svg">
<path fill-rule="evenodd" clip-rule="evenodd" d="M20.1578 16.7369L13.2914 5.11679C12.7108 4.13424 11.2892 4.13425 10.7086 5.11679L3.84218 16.7369C3.25131 17.7368 3.97212 19 5.13357 19H18.8664C20.0279 19 20.7487 17.7368 20.1578 16.7369ZM15.0132 4.09933C13.6585 1.80674 10.3415 1.80673 8.98676 4.09933L2.12033 15.7194C0.741644 18.0526 2.42352 21 5.13357 21H18.8664C21.5765 21 23.2584 18.0526 21.8797 15.7195L15.0132 4.09933ZM12.0005 17.8C11.2278 17.8 10.6 17.1733 10.6 16.4005C10.6 15.6267 11.2278 15 12.0005 15C12.7733 15 13.4 15.6267 13.4 16.4005C13.4 17.1733 12.7733 17.8 12.0005 17.8ZM12 7C11.4477 7 11 7.44771 11 8V13C11 13.5523 11.4477 14 12 14C12.5523 14 13 13.5523 13 13V8C13 7.44771 12.5523 7 12 7Z" fill="#313234"/>
</svg>

<svg xmlns="http://www.w3.org/2000/svg" width="24" height="24" fill="none" viewBox="0 0 24 24"><path fill="#313234" fill-rule="evenodd" d="M20.158 16.737 13.29 5.117a1.5 1.5 0 0 0-2.582 0l-6.867 11.62A1.5 1.5 0 0 0 5.134 19h13.732a1.5 1.5 0 0 0 1.292-2.263M15.013 4.099c-1.354-2.292-4.671-2.292-6.026 0L2.12 15.72C.742 18.053 2.424 21 5.134 21h13.732c2.71 0 4.392-2.947 3.014-5.28zM12.001 17.8a1.4 1.4 0 1 1 0-2.801 1.4 1.4 0 0 1 0 2.801M12 7a1 1 0 0 0-1 1v5a1 1 0 1 0 2 0V8a1 1 0 0 0-1-1" clip-rule="evenodd"/></svg>
